X:1
T:Title
%%score { ( 1 3 ) | 2 }
L:1/8
M:3/4
K:Eb
V:1 treble nm="Grand Piano"
V:3 treble 
V:2 bass 
V:1
 z2 z2[Q:1/4=100] G2 | F2 E2 G2 | F2 E2 [GB]2 | [Ge]2 [DGd]2 [EGc]2 | [FB]4 [B,FB]2 | A2 G2 B2 | %6
 A2 G2 B2 | c2 d2 c2 | [DB]4 [Dc]2 | [Dc]2 [DF]2 [EG]2 | [DB]2 [DA]2 [Dc]2 | [Dc]2 [DF]2 [EG]2 | %12
 B2 A2 [DA]2 | [DG]4 [DG][DG] | [CG]2 [Ec]2 [Ge]2 | [Fd]2 [Ge]2 [Ec]2 |[M:2/4] [DB]4 |[M:1/4] B2 | %18
[M:3/4] [Ge]4 [Gd][Gc] | [Ad]2 [Ac]2 [AB]2 | [Ge]4 [Gd][Gc] | [Ad]2 [CAc]2 [DAB]2 | %22
 [EGc]4 [_DEB][DEG] | [_DEB]2 [CEA]2 [A,CF]2 | [G,B,E]2 [B,EG]2 [A,DF]2 |[M:2/4] [G,E]4 |] %26
V:2
 z2 z2 [E,B,E]2 | [E,A,D]2 [E,G,]2 [E,B,E]2 | [E,A,D]2 [E,G,]2 [E,B,]2 | [C,C]2 C,2 C,2 | D,4 D,2 | %5
 [E,CE]2 [E,B,E]2 [E,G,E]2 | [E,CE]2 [E,B,E]2 [G,B,E]2 | [_G,B,E]2 [F,B,F]2 [F,=A,E]2 | %8
 [B,,B,]4 [B,,A,]2 | [B,,A,]2 [B,,A,]2 [B,,G,]2 | [B,,F,]2 [B,,F,]2 [B,,A,]2 | %11
 [B,,A,]2 [B,,A,]2 [B,,G,]2 | [B,,F,]4 [B,,F,]2 | [=B,,F,]4 [B,,F,][B,,F,] | %14
 [C,E,]2 [C,G,]2 [C,G,]2 | [F,B,]2 [F,B,]2 [F,=A,]2 |[M:2/4] [B,,B,]4 |[M:1/4] [B,A]2 | %18
[M:3/4] [E,B,]4 [E,B,][E,B,] | [E,B,]2 [E,C]2 [E,D]2 | [E,B,]4 [E,B,][E,B,] | [E,B,]2 E,2 E,2 | %22
 E,4 E,E, | A,2 A,2 A,,2 | B,,2 B,,2 B,,2 |[M:2/4] E,4 |] %26
V:3
 x6 | x6 | x6 | x6 | x6 | x6 | x6 | x6 | x6 | x6 | x6 | x6 | D4 z2 | x6 | x6 | x6 |[M:2/4] x4 | %17
[M:1/4] x2 |[M:3/4] x6 | x6 | x6 | x6 | x6 | x6 | x6 |[M:2/4] x4 |] %26

